packages/kaspersky-hexa-ui-icons/src/iconsSVGs/24/Other.svg

<svg width="24" height="24" viewBox="0 0 24 24" fill="none" xmlns="http://www.w3.org/2000/svg">
<path d="M3.4453 4.16806C3.90483 3.8617 4.5257 3.98588 4.83205 4.44541L6.36177 6.73999C7.96697 5.64219 9.9085 5.00011 12 5.00011C14.0915 5.00011 16.033 5.64219 17.6382 6.73999L19.1679 4.44541C19.4743 3.98588 20.0952 3.8617 20.5547 4.16806C21.0142 4.47441 21.1384 5.09528 20.8321 5.55481L19.1773 8.0369C20.9244 9.83739 22 12.2931 22 15.0001V18.0001C22 18.5524 21.5523 19.0001 21 19.0001C20.4477 19.0001 20 18.5524 20 18.0001V15.0001C20 10.5818 16.4183 7.00011 12 7.00011C7.58172 7.00011 4 10.5818 4 15.0001V18.0001C4 18.5524 3.55228 19.0001 3 19.0001C2.44772 19.0001 2 18.5524 2 18.0001V15.0001C2 12.2931 3.07558 9.83739 4.82268 8.0369L3.16795 5.55481C2.8616 5.09528 2.98577 4.47441 3.4453 4.16806Z" fill="black"/>
<path d="M10 12.0001C10 12.5524 9.55228 13.0001 9 13.0001C8.44772 13.0001 8 12.5524 8 12.0001C8 11.4478 8.44772 11.0001 9 11.0001C9.55228 11.0001 10 11.4478 10 12.0001Z" fill="black"/>
<path d="M15 13.0001C15.5523 13.0001 16 12.5524 16 12.0001C16 11.4478 15.5523 11.0001 15 11.0001C14.4477 11.0001 14 11.4478 14 12.0001C14 12.5524 14.4477 13.0001 15 13.0001Z" fill="black"/>
<path d="M10 14.0001C10 13.4478 10.4477 13.0001 11 13.0001H13C13.5523 13.0001 14 13.4478 14 14.0001C14 14.5524 13.5523 15.0001 13 15.0001H11C10.4477 15.0001 10 14.5524 10 14.0001Z" fill="black"/>
</svg>

<svg xmlns="http://www.w3.org/2000/svg" width="24" height="24" fill="none" viewBox="0 0 24 24"><path fill="#000" d="M3.4453 4.168c.4595-.3063 1.0804-.1821 1.3867.2774L6.3618 6.74C7.967 5.6422 9.9085 5 12 5s4.033.642 5.6382 1.7399l1.5297-2.2946c.3064-.4595.9273-.5837 1.3868-.2773s.5837.9272.2774 1.3867L19.1773 8.037C20.9244 9.8374 22 12.2931 22 15.0001v3c0 .5523-.4477 1-1 1s-1-.4477-1-1v-3c0-4.4183-3.5817-8-8-8s-8 3.5817-8 8v3c0 .5523-.4477 1-1 1s-1-.4477-1-1v-3c0-2.707 1.0756-5.1627 2.8227-6.9632l-1.6548-2.482c-.3063-.4596-.1821-1.0805.2774-1.3868"/><path fill="#000" d="M10 12c0 .552-.448 1-1 1s-1-.448-1-1 .448-1 1-1 1 .448 1 1m5 1c.552 0 1-.448 1-1s-.448-1-1-1-1 .448-1 1 .448 1 1 1m-5 1c0-.552.448-1 1-1h2c.552 0 1 .448 1 1s-.448 1-1 1h-2c-.552 0-1-.448-1-1"/></svg>
